icon-svg/unraid.svg

<svg xmlns="http://www.w3.org/2000/svg" viewBox="0 0 24 24"><path fill="#44739e" d="M11.505 9.104h.975v5.772h-.975Zm-8.53 5.772H2V9.104h.975Zm3.778.69h.975v2.204h-.975ZM4.37 13.091h.974v3.569h-.975Zm4.752 0h.978v3.569h-.978Zm11.9-3.987H22v5.772h-.975Zm-3.778-.675h-.975v-2.2h.975Zm2.386 2.458h-.974V7.336h.975Zm-4.767 0h-.975V7.336h.975Z"/></svg>

<?xml version="1.0" encoding="UTF-8"?>
<svg width="24px" fill="#44739e" height="24px" viewBox="0 0 24 24" version="1.1" xmlns="http://www.w3.org/2000/svg" xmlns:xlink="http://www.w3.org/1999/xlink">
            <path d="m 11.505,9.107 h 0.975 v 5.771 h -0.975 z m -8.53,5.771 H 2 V 9.107 h 0.975 z m 3.778,0.69 h 0.975 v 2.205 H 6.753 Z M 4.37,13.094 h 0.974 v 3.568 H 4.369 Z m 4.752,0 H 10.1 v 3.568 H 9.122 Z m 11.9,-3.987 H 22 v 5.771 H 21.025 Z M 17.244,8.432 h -0.975 v -2.2 h 0.975 z M 19.63,10.89 H 18.656 V 7.338 h 0.975 z m -4.767,0 H 13.888 V 7.338 h 0.975 z"/>

</svg>
